**kern	**kern
*part1	*part1
*staff2	*staff1
*I"Piano	*
*clefF4	*clefG2
*k[b-e-a-]	*k[b-e-a-]
=1	=1
2.GG 2.G	8r
.	[4.f [4.g [4.bn
.	4f] 4g] 4b]
4D' 4d	8r
.	8f 8a- 8cc
=	=
4GG' 4G	8r
.	8f 8g 8bn
4D' 4d	8r
.	8f 8a- 8cc
4GG' 4G	8r
.	8f 8g 8b
4E-' 4e-	8r
.	8g 8cc 8ee-
=	=
2.C 2.c	8r
.	[4.e- [4.cc
.	4e-] 4cc]
(4D-X 4d-X	(4f 4a- 4ff
=	=
4C 4c	4e- 4a- 4ee-
4BB- 4B-	4d-X 4g 4dd-X
4AA-) 4A-	4c) 4a- 4cc
*	*^
(8FFL 8F	(8A-L 8a-	4f
8DD-XJ) 8D-X	8B-J) 8b-	.
=	=	=
(4CC 4C	(2c 2cc	(4e-
4AAA- 4AA-	.	4f)
*	*v	*v
4GGG) 4GG	4Bn) 4g
4GG' 4G	4B' 4d 4g
=	=
2CC 2C	2c 2e- 2cc
*	*^
2GGG 2GG	2G 2d 2g	(4c
.	.	4Bn)
*	*v	*v
=	=
*^	*
2C	2CCC 2CC	2c
4rGGyy	4rEE	4r
*v	*v	*
==	==
*-	*-
!!!system-decoration: {(s1,s2)}
